X: 20798
T: Johnny Mickey's
R: slide
M: 12/8
K: Dmajor
|:E|F2 F F2 E D3- D2 E|FGF FED E3- E2 F|
GFG B2 G F^EF A2 F|E^DE F2 E =D3- D2:|
|:F|ABd A2 F A3- A2 F|AB/c/d A2 F G3- G2 F|
GFG B2 G F^EF A2 F|E^DE F2 E =D3- D2:|

